!!! Genre: Bach WTC1 Prelude 15
!!! Title: Prelude 15
!!! Number: 4
!!! Level: 2
**kern	**kern
*clefF4	*clefG2
*k[f#]	*k[f#]
*met(c)	*met(c)
*G:	*G:
*Xtuplet	*Xtuplet
=13	=13
24D\LL	8r
24F#\	.
24A\JJ	.
24d\LL	8r
24A\	.
24F#\JJ	.
24A\LL	8r
24F#\	.
24D\JJ	.
24F#\LL	8dd\
24D\	.
24Cn\JJ	.
24BB\LL	24dd\LL
24D\	24cc\
24F#\JJ	24b\JJ
24G\LL	24b/LL
24D\	24a/
24BB\JJ	24g/JJ
24D/LL	24g/LL
24BB/	24b/
24GG/JJ	24dd/JJ
24BB/LL	24ffn\LL
24GG/	24ee\
24FFn/JJ	24dd\JJ
=14	=14
24EE/LL	24dd\LL
24GG/	24ee\
24BB/JJ	24ffn\JJ
24C\LL	8ee\
24E\	.
24G\JJ	.
24c\LL	8r
24G\	.
24E\JJ	.
24G\LL	8ee\
24E\	.
24D\JJ	.
24C#\LL	24ee\LL
24E\	24dd\
24G\JJ	24cc#\JJ
24A\LL	24cc#\LL
24E\	24b\
24C#\JJ	24a\JJ
24E/LL	24a\LL
24C#/	24cc#\
24AA/JJ	24ee\JJ
24C#/LL	24gg\LL
24AA/	24ff#\
24GG/JJ	24ee\JJ
=15	=15
24FF#/LL	24ee\LL
24AA/	24ff#\
24C#/JJ	24gg\JJ
24D\LL	8ff#\
24F#\	.
24A\JJ	.
24d\LL	8r
24A\	.
24F#\JJ	.
24A\LL	8aa\
24F#\	.
24D\JJ	.
24F#/LL	24aa\LL
24D/	24gg\
24AA/JJ	24ff#\JJ
24D/LL	24ff#\LL
24AA/	24ee\
24FF#/JJ	24dd\JJ
8DD/L	24dd\LL
.	24ff#\
.	24aa\JJ
8D/J	24ccc\LL
.	24bb\
.	24aa\JJ
=16	=16
[8GG/	24aa\LL
.	24bb\
.	24ccc\JJ
24GG/LL]	[8bb\
24BB/	.
24D/JJ	.
24G\LL	24bb\LL]
24A\	24aa\
24B\JJ	24gg\JJ
24B\LL	24ffn\LL
24c\	24ee\
24d\JJ	24dd\JJ
8e\	24cc\LL
.	24ee\
.	24gg\JJ
24c\LL	24aa\LL
24A\	24ff#\
24F#\JJ	24dd\JJ
8d\	24b\LL
.	24dd\
.	24ff#\JJ
24B\LL	24gg\LL
24G\	24ee\
24E\JJ	24cc\JJ
=17	=17
8c\	24a\LL
.	24cc\
.	24ee\JJ
24A\LL	24ff#\L
24F#\	24dd\
24D\JJ	24b\JJ
8B\	24g\LL
.	24b\
.	24dd\JJ
24G\LL	24ee\LL
24E\	24cc\
24C\JJ	24a\JJ
8A\	24f#/LL
.	24a/
.	24cc/JJ
24F#\LL	24dd/LL
24D\	24b/
24BB\JJ	24g/JJ
8G\	24e/LL
.	24g/
.	24b/JJ
24E/LL	24cc/LL
24C/	24a/
24AA/JJ	24f#/JJ
=18	=18
8F#\	24d/LL
.	24f#/
.	24a/JJ
24D/LL	24b/LL
24BB/	24g/
24GG/JJ	24e/JJ
24E/LL	24c/LL
24C/	24e/
24AA/JJ	24g/JJ
24F#/LL	24a/LL
24D/	24f#/
24BB/JJ	24d/JJ
8G\L	24B/LL
.	24d/
.	24f#/JJ
8E\J	24g/LL
.	24e/
.	24c/JJ
8C/L	24A/LL
.	24c/
.	24e/JJ
8D/J	24f#/LL
.	24d/
.	24c/JJ
=19	=19
1GG;/	1g 1d 1B;
=||	=||
*-	*-
